X:19068
T:Xiraldilla (CT 382)
R:Xiraldilla
C:Tradicional
S:Música Tradicional Asturiana, (C) Tello & Tito. Asturies, 2001.
S:http://pagina.de/MusTradAst <telloytito@asturies.org>
N:Xiraldilla, transcrita y comunicada por D. Fernando del Fresno, de Uviéu.
O:Uviéu
A:Asturies
Z:Cancioneru de Torner 382
M:2/4
L:1/8
Q:1/4=160
W:Se va el sol por encima
W:de la casa de mi amor:
W:a mi amante voy a ver, madre.
W:Dónde ves, ovejita,
W:sola y tan tarde.
K:G
Bd
|d2 Bd|dd dd|dd dd|d2 dd|dd d=f|(ed) (cB)|c2 Ac|c2 Ac|cc ce|(dc) (BA)|B2||


